X:1
T:Title
%%score ( 1 2 ) { 3 | 4 }
L:1/8
Q:1/4=100
M:6/8
K:D
V:1 treble nm="Grand Piano, Soprano"
V:2 treble 
V:3 treble nm="Choir Pad, Bass"
V:4 bass 
V:1
 [FA]2 [FA] [DF][EG][FA] | [GB] [GB]2- [GB]2- [GB]/ z/ | z3 .c3 | [Fd]6 | [GB]2 [GB] [Bd][Ac][GB] | %5
w: By~Christopher~Columbus~Cline,~1883 * * * *|||||
 [GB] [FA]2- [FA]2- [FA]/ z/ | [FA]2 [FA] [EG][DF][CE] | [DF]6 | [GB]2 [GB] [Bd][Ac][GB] | %9
w: ||||
 [GB] [FA]2- [FA]2- [FA]/ z/ | A3 A3 | [FA]6- | [FA]3 z3 |] %13
w: ||||
V:2
 x6 | x6 | [Ec]2 [Ec] G-[GB][Gc] | x6 | x6 | x6 | x6 | x6 | x6 | x6 | E2 E EFG | x6 | x6 |] %13
V:3
 D2 D A,2 D | D D2- D2- D/ z/ | A,2 A, A,2 A, | A,6 | G,2 G, G,2 B, | D D2- D2- D/ z/ | %6
 D2 D[K:bass] A,2 A, | A,6 | G,2 G, G,2 B, | D D2- D2- D/ z/ | C2 C CDE | D6- | D3 z3 |] %13
V:4
 D,2 D, D,2 D, | G, G,2- G,2- G,/ z/ | z3 A,,2 A,, | D,6 | z3 z2 G, | D, D,2- D,2- D,/ z/ | %6
 A,2 A, A,,2 A,, | D,6 | z3 z2 G, | D, D,2- D,2- D,/ z/ | A,2 A, A,,2 A,, | D,6- | D,3 z3 |] %13

